svg/blobs-icons/no-decorations/ship-wheel.svg

<svg xmlns="http://www.w3.org/2000/svg" xmlns:xlink="http://www.w3.org/1999/xlink" preserveAspectRatio="xMidYMid" width="217" height="217" viewBox="0 0 217 217"><defs><style>.cls-3{fill:#142a3b}.cls-11{fill:#ff3a2f}.cls-13{fill:#000;opacity:.35}</style></defs><g id="group-19svg"><path d="M112.054 216.874s-7.23.0-7.23.0.0-90.343.0-90.343 7.23.0 7.23.0.0 90.343.0 90.343z" id="path-1" class="cls-3" fill-rule="evenodd"/><path d="M112.054 88.191s-7.23.0-7.23.0.0-88.195.0-88.195 7.23.0 7.23.0.0 88.195.0 88.195z" id="path-2" class="cls-3" fill-rule="evenodd"/><path d="M90.349 112.049s-90.347.0-90.347.0S.002 104.821.002 104.821s90.347.0 90.347.0S90.349 112.049 90.349 112.049z" id="path-3" class="cls-3" fill-rule="evenodd"/><path d="M216.876 112.049s-92.418.0-92.418.0S124.458 104.821 124.458 104.821s92.418.0 92.418.0S216.876 112.049 216.876 112.049z" id="path-4" class="cls-3" fill-rule="evenodd"/><path d="M89.868 94.976s-60.66-60.664-60.66-60.664S34.319 29.2 34.319 29.2s60.66 60.663 60.66 60.663-5.111 5.113-5.111 5.113z" id="path-5" class="cls-3" fill-rule="evenodd"/><path d="M182.56 187.669s-60.664-60.665-60.664-60.665S127.008 121.892 127.008 121.892s60.664 60.665 60.664 60.665S182.56 187.669 182.56 187.669z" id="path-6" class="cls-3" fill-rule="evenodd"/><path d="M34.319 187.669S29.208 182.557 29.208 182.557s58.581-58.584 58.581-58.584S92.9 129.086 92.9 129.086s-58.581 58.583-58.581 58.583z" id="path-7" class="cls-3" fill-rule="evenodd"/><path d="M127.017 94.971s-5.112-5.113-5.112-5.113S182.56 29.2 182.56 29.2s5.112 5.112 5.112 5.112-60.655 60.659-60.655 60.659z" id="path-8" class="cls-3" fill-rule="evenodd"/><path d="M107.595 23.129c-47.911.0-86.75 38.84-86.75 86.753.0 47.91 38.839 86.751 86.75 86.751 47.91.0 86.75-38.841 86.75-86.751.0-47.913-38.84-86.753-86.75-86.753zm0 156.246c-38.38.0-69.494-31.113-69.494-69.493.0-38.382 31.114-69.496 69.494-69.496s69.493 31.114 69.493 69.496c0 38.38-31.113 69.493-69.493 69.493z" id="path-9" class="cls-11" fill-rule="evenodd"/><path d="M107.595 81.389c-15.736.0-28.491 12.756-28.491 28.493.0 15.734 12.755 28.491 28.491 28.491 15.735.0 28.49-12.757 28.49-28.491.0-15.737-12.755-28.493-28.49-28.493zm0 39.764C101.369 121.153 96.323 116.106 96.323 109.882 96.323 103.656 101.369 98.609 107.595 98.609 113.82 98.609 118.866 103.656 118.866 109.882 118.866 116.106 113.82 121.153 107.595 121.153z" id="path-10" class="cls-11" fill-rule="evenodd"/><path d="M118.043 102.905C119.106 104.76 119.761 106.878 119.761 109.168c0 6.997-5.673 12.671-12.671 12.671C104.801 121.839 102.682 121.183 100.829 120.12 103.013 123.932 107.073 126.53 111.782 126.53 118.78 126.53 124.452 120.856 124.452 113.859 124.452 109.151 121.855 105.09 118.043 102.905z" id="path-11" class="cls-13" fill-rule="evenodd"/></g></svg>

<svg xmlns="http://www.w3.org/2000/svg" xmlns:xlink="http://www.w3.org/1999/xlink" preserveAspectRatio="xMidYMid" width="217" height="217" viewBox="0 0 217 217">
  <defs>
    <style>

      .cls-3 {
        fill: #142a3b;
      }

      .cls-11 {
        fill: #ff3a2f;
      }

      .cls-13 {
        fill: #000000;
        opacity: 0.35;
      }
    </style>
  </defs>
  <g id="group-19svg">
    <path d="M112.054,216.874 C112.054,216.874 104.824,216.874 104.824,216.874 C104.824,216.874 104.824,126.531 104.824,126.531 C104.824,126.531 112.054,126.531 112.054,126.531 C112.054,126.531 112.054,216.874 112.054,216.874 Z" id="path-1" class="cls-3" fill-rule="evenodd"/>
    <path d="M112.054,88.191 C112.054,88.191 104.824,88.191 104.824,88.191 C104.824,88.191 104.824,-0.004 104.824,-0.004 C104.824,-0.004 112.054,-0.004 112.054,-0.004 C112.054,-0.004 112.054,88.191 112.054,88.191 Z" id="path-2" class="cls-3" fill-rule="evenodd"/>
    <path d="M90.349,112.049 C90.349,112.049 0.002,112.049 0.002,112.049 C0.002,112.049 0.002,104.821 0.002,104.821 C0.002,104.821 90.349,104.821 90.349,104.821 C90.349,104.821 90.349,112.049 90.349,112.049 Z" id="path-3" class="cls-3" fill-rule="evenodd"/>
    <path d="M216.876,112.049 C216.876,112.049 124.458,112.049 124.458,112.049 C124.458,112.049 124.458,104.821 124.458,104.821 C124.458,104.821 216.876,104.821 216.876,104.821 C216.876,104.821 216.876,112.049 216.876,112.049 Z" id="path-4" class="cls-3" fill-rule="evenodd"/>
    <path d="M89.868,94.976 C89.868,94.976 29.208,34.312 29.208,34.312 C29.208,34.312 34.319,29.200 34.319,29.200 C34.319,29.200 94.979,89.863 94.979,89.863 C94.979,89.863 89.868,94.976 89.868,94.976 Z" id="path-5" class="cls-3" fill-rule="evenodd"/>
    <path d="M182.560,187.669 C182.560,187.669 121.896,127.004 121.896,127.004 C121.896,127.004 127.008,121.892 127.008,121.892 C127.008,121.892 187.672,182.557 187.672,182.557 C187.672,182.557 182.560,187.669 182.560,187.669 Z" id="path-6" class="cls-3" fill-rule="evenodd"/>
    <path d="M34.319,187.669 C34.319,187.669 29.208,182.557 29.208,182.557 C29.208,182.557 87.789,123.973 87.789,123.973 C87.789,123.973 92.900,129.086 92.900,129.086 C92.900,129.086 34.319,187.669 34.319,187.669 Z" id="path-7" class="cls-3" fill-rule="evenodd"/>
    <path d="M127.017,94.971 C127.017,94.971 121.905,89.858 121.905,89.858 C121.905,89.858 182.560,29.200 182.560,29.200 C182.560,29.200 187.672,34.312 187.672,34.312 C187.672,34.312 127.017,94.971 127.017,94.971 Z" id="path-8" class="cls-3" fill-rule="evenodd"/>
    <path d="M107.595,23.129 C59.684,23.129 20.845,61.969 20.845,109.882 C20.845,157.792 59.684,196.633 107.595,196.633 C155.505,196.633 194.345,157.792 194.345,109.882 C194.345,61.969 155.505,23.129 107.595,23.129 ZM107.595,179.375 C69.215,179.375 38.101,148.262 38.101,109.882 C38.101,71.500 69.215,40.386 107.595,40.386 C145.975,40.386 177.088,71.500 177.088,109.882 C177.088,148.262 145.975,179.375 107.595,179.375 Z" id="path-9" class="cls-11" fill-rule="evenodd"/>
    <path d="M107.595,81.389 C91.859,81.389 79.104,94.145 79.104,109.882 C79.104,125.616 91.859,138.373 107.595,138.373 C123.330,138.373 136.085,125.616 136.085,109.882 C136.085,94.145 123.330,81.389 107.595,81.389 ZM107.595,121.153 C101.369,121.153 96.323,116.106 96.323,109.882 C96.323,103.656 101.369,98.609 107.595,98.609 C113.820,98.609 118.866,103.656 118.866,109.882 C118.866,116.106 113.820,121.153 107.595,121.153 Z" id="path-10" class="cls-11" fill-rule="evenodd"/>
    <path d="M118.043,102.905 C119.106,104.760 119.761,106.878 119.761,109.168 C119.761,116.165 114.088,121.839 107.090,121.839 C104.801,121.839 102.682,121.183 100.829,120.120 C103.013,123.932 107.073,126.530 111.782,126.530 C118.780,126.530 124.452,120.856 124.452,113.859 C124.452,109.151 121.855,105.090 118.043,102.905 Z" id="path-11" class="cls-13" fill-rule="evenodd"/>
  </g>
</svg>
